X: 20545
T: John McKenna's
R: polka
M: 2/4
K: Gmajor
|:B/|d2 B>^A|B/A/B/c/ BD|A>B A/F/D/F/|AG G/A/B/c/|
dB B2|BB/c/ BD|AA/B/ A/F/D/F/|AG G3/2:|
|:a/|b/a/g/f/ a/g/f/e/|dB B/^A/B|dA A/^G/A|DG G/F/G|
b/a/g/f/ af/e/|dB B/^A/B/c/|dA A/^G/A/F/|DG G3/2:|

